X: 36
T:Marquis of Lorne
% Nottingham Music Database
S:Kevin Briggs
M:4/4
L:1/8
R:Hornpipe
K:G
P:A
ba|"G"gfge B2ed|"Am"cBcA E2AG|"D7"FGAB cdef|"G"(3gba(3gfe "D7"d2ba|
"G"gfge "Em"B2ed|"Am"cBcA E2AG|"D7"FGAB cdef|"G"g2b2 g2:|
P:B
Bc|"G"dBgB dgBc|"G"(3dcBgB d2cB|"Am"cAfA cfAB|"Am"(3cBAfA "D7"c2Bc|
"G"dBgB dgBc|"G"(3dcBgB "Em"d2cB|"Am"ceag "D7"fdef|"G"g2b2 g2:|<end>
<start>
